Improvs/dist/images/ryan_template/step2.svg

<svg width="20" height="20" viewBox="0 0 20 20" fill="none" xmlns="http://www.w3.org/2000/svg">
<path d="M14.4082 3.44886L14.3499 6.60717C14.3415 7.0405 14.6166 7.61552 14.9666 7.87385L17.0332 9.4405C18.3582 10.4405 18.1416 11.6655 16.5582 12.1655L13.8666 13.0072C13.4166 13.1488 12.9416 13.6405 12.8249 14.0989L12.1832 16.5488C11.6749 18.4822 10.4082 18.6738 9.35821 16.9738L7.89154 14.5988C7.62487 14.1655 6.99154 13.8405 6.49154 13.8655L3.70824 14.0072C1.71657 14.1072 1.1499 12.9572 2.4499 11.4405L4.09988 9.52384C4.40821 9.1655 4.54988 8.49885 4.40821 8.04885L3.56659 5.35717C3.07492 3.77384 3.95824 2.89885 5.53324 3.41552L7.99158 4.22385C8.40825 4.35718 9.03324 4.26551 9.38324 4.00717L11.9499 2.15717C13.3333 1.15717 14.4415 1.74052 14.4082 3.44886Z" stroke="#00091D" stroke-width="1.5" stroke-linecap="round" stroke-linejoin="round"/>
<path d="M18.2584 18.3336L15.7334 15.8086" stroke="#00091D" stroke-width="1.5" stroke-linecap="round" stroke-linejoin="round"/>
</svg>

<svg width="20" height="20" fill="none" xmlns="http://www.w3.org/2000/svg"><path d="M14.408 3.449l-.058 3.158c-.008.433.267 1.009.617 1.267l2.066 1.567c1.325 1 1.109 2.224-.475 2.724l-2.691.842c-.45.142-.925.633-1.042 1.092l-.642 2.45c-.508 1.933-1.775 2.125-2.825.425l-1.466-2.375c-.267-.434-.9-.758-1.4-.733l-2.784.141c-1.991.1-2.558-1.05-1.258-2.566L4.1 9.524c.308-.358.45-1.025.308-1.475l-.841-2.692c-.492-1.583.391-2.458 1.966-1.941l2.459.808c.416.133 1.041.042 1.391-.217l2.567-1.85c1.383-1 2.492-.416 2.458 1.292zm3.85 14.885l-2.525-2.525" stroke="#00091D" stroke-width="1.5" stroke-linecap="round" stroke-linejoin="round"/></svg>
